X:1
T:[ID 5-19]
T:[ID 5-19]
T:Bezeichnung standardisiert: Menuett Menuet 14.
T:Urheber unbekannt Erstbeleg: 1773 (Datum in der schriftlichen Quelle) Datum in der hier transkribierten schriftlichen Quelle: 1775
C:Urheber unbekannt
C:Erstbeleg: 1773 (Datum in der schriftlichen Quelle)
C:Datum in der hier transkribierten schriftlichen Quelle: 1775
L:1/8
M:3/4
K:A
V:1 treble 
V:1
 (3cAE C2 C2 | (3CDE (3DEF E2 | (3cAE C2 C2 | (3CDE (3DEF E2 | ec a2 g2 | f4 e2 | dfeAGF | G6 :: %8
 Geegge | Accaac | Aggaba | g4"^1)" x2 | cA d2 c2 | B4 A2 | GBAECB, | C6 :| %16

